X:370
T: Basket of Oysters
N: O'Farrell's Pocket Companion v.4 (Sky ed. p.160)
N: "Irish"
M: 6/8
L: 1/8
Q: 320
R: jig
K: Em
(3d/e/f/| gag gab| abg fga| gfg eag| fdB BAB|
gag gab| abg fga| gfe afd | e3e2 :|
P:2
g| dec BcA| GBd gfe| dec BcA| BGE E3|
dec BcA| GBd g2a| bge afd| e3e2 :|
P:3
g/a/| bgg dgg| a f/g/a/f/ dfa| gfg efg| fdB B2g|
bgg dgg| a f/g/a/f/ dfa| gfe afd| e3e2 :|
P:4
g| dBB GBB| dBB gfe| dBB GBA| BGE E2e|
dec BcA| GBd g2a| bc'b agf|e3e2 :|
